X: 42196
T: Wattentaler, The
R: mazurka
M: 3/4
K: Cmajor
|:g a>g|g2 c’>g e>c|B2 d>f b>a|g2 b>g f>B|c2 e>g c’>a|
g2 c’>g e>c|B2 d>f b>a|g2 b>g f>B|c2 c>c’ b>a|
g2 e>g e>g|g2 B>g b>a|g2 B>g f>g|(3gag e>g c’>a|
g2 e>g e>c|(3gag f>g B>a|g2 ^f>g a>g|c2 c:|

